X:18
T:Rule Brittania. JClw.18
M:4/4
L:1/8
Q:1/4=120
S:J.Clews MS,Stoke-upon-Tern,Shrops.1832
A:N. Shropshire
Z:Neil Brookes 2006
K:D
A|d2d2d/e/f/g/a d|e2 ef/g/ Tf2zA|d/c/d/e/ f/e/f/g/a e f e|de/f/ ed c2zA|
c A e c a ^g/f/ e/d/ c/B/|A2{AB}B2{AB}A2||!
d2d3/2 A/ B G zd|g f e d A2ze|a2g2 f/d/g/e/a/f/ e/d/|A2Te2{de}d4|
f2zf g gzf|g3/2f/e3/2d/A4|a2g2 f/d/g/e/a/f/ e/f/|A2e2{de}d4||

